themes/vue/source/images/fastcoding_inc.svg

<svg height="19" viewBox="0 0 180 19" width="180" xmlns="http://www.w3.org/2000/svg"><g fill="#c11c1f" fill-rule="evenodd"><path d="m0 0v17.9086027h3.79838561v-7.2613312h7.34836589v-3.36296144h-7.34836589v-3.83173092h8.02594099v-3.45257914z"/><path d="m21.0662694 0-6.6019837 17.9086027h4.2042309l1.312-3.8983697h6.9413543l1.312 3.8983697h4.2053971l-6.6031499-17.9086027zm2.3977528 3.76509213 2.3720959 7.06026587h-4.7698487z"/><path d="m46.6753734 4.65552435c-1.2665173-.80196347-2.4875519-1.20294521-3.595463-1.20294521-1.4694399 0-2.3522701.82494237-2.3522701 1.87163109 0 1.17996631.8151893 1.5591181 2.3067875 2.04971753 3.1651269 1.02370982 5.4497562 2.13818628 5.4497562 5.52412664 0 3.184875-2.5551928 5.724043-6.6474664 5.724043-2.0583821 0-3.9126754-.5560893-5.6760033-1.6475868l1.1312355-3.3641104c1.5149226 1.0696676 3.028679 1.5591181 4.4083198 1.5591181 1.5604053 0 2.9400461-.6905159 2.9400461-2.0049087 0-1.1581364-.8595058-1.7590345-3.007687-2.4943592-2.577351-.86860227-4.724366-2.02673863-4.724366-5.14612378 0-3.0952573 2.440903-5.52412662 6.0585242-5.52412662 1.8997759 0 3.3237332.57906818 4.5902504 1.27073295z"/><path d="m61.1461398 17.9086027h-3.8205438v-14.45717251h-5.4952389v-3.45143019h14.8098554v3.45143019h-5.4940727z"/><path d="m85.4669518 17.3295345c-1.8764515.8915812-3.7529029 1.2925629-5.8334433 1.2925629-6.556501 0-9.7227942-4.4774379-9.7227942-9.28921875 0-5.70221307 4.2963625-9.33287865 9.700636-9.33287865 2.0793741 0 4.1144318.60089813 5.8556015 1.71422565l-1.2431928 3.43074919c-.5201351-.44579059-1.9452586-1.69354465-4.5902505-1.69354465-3.8205438 0-5.9010842 2.65176462-5.9010842 5.85961851 0 3.1182362 1.9440924 5.8584696 6.1494895 5.8584696 2.8269226 0 4.7033741-1.2477541 5.585038-1.8268223z"/><path d="m98.5798522 15.1695183c3.4368568 0 5.5628798-2.873511 5.5628798-5.8584696s-2.126023-5.85846956-5.5628798-5.85846956-5.5628798 2.87351096-5.5628798 5.85846956 2.126023 5.8584696 5.5628798 5.8584696m0-15.1695183c5.1768598 0 9.3834238 3.76394318 9.3834238 9.3110487 0 5.5689355-4.228722 9.3110487-9.3834238 9.3110487-5.1325438 0-9.3834236-3.6973044-9.3834236-9.3110487 0-5.59191437 4.2508798-9.3110487 9.3834236-9.3110487"/><path d="m115.918758 14.4571725h2.464228c2.668316 0 6.422385 0 6.422385-5.50229669 0-5.48046672-3.776227-5.50229667-6.309262-5.50229667h-2.577351zm-3.820544-14.4571725h7.438165c6.557668 0 9.089536 4.23271266 9.089536 8.95487581 0 4.81178089-2.554027 8.95487579-9.202659 8.95487579h-7.325042z"/><path d="m132.589286 17.9086027h3.843868v-17.9086027h-3.843868z"/><path d="m146.459698 0 7.959467 12.1845597v-12.1845597h3.82171v17.9086027h-4.228722l-7.959466-12.18455968v12.18455968h-3.820544v-17.9086027z"/><path d="m178.098687 5.12314489c-.565617-.40098174-2.374428-1.67056575-5.268991-1.67056575-4.340679 0-6.284772 2.82870211-6.284772 5.90327841 0 2.38291155 1.221035 5.81366075 6.330254 5.81366075 1.492765 0 2.283463-.2895341 2.872405-.5124294v-3.3859404h-4.04679v-3.29632261h7.799693v9.31104871c-1.899775.8019635-4.092273 1.3362228-6.625308 1.3362228-6.804906 0-10.151964-4.5440767-10.151964-9.33287865 0-5.54710552 4.296363-9.28921875 10.084323-9.28921875 2.396587 0 4.477127.57906818 6.579826 1.73720455z"/></g></svg>

<?xml version="1.0" encoding="UTF-8"?>
<svg width="180px" height="19px" viewBox="0 0 180 19" version="1.1" xmlns="http://www.w3.org/2000/svg" xmlns:xlink="http://www.w3.org/1999/xlink">
    <!-- Generator: Sketch 52.3 (67297) - http://www.bohemiancoding.com/sketch -->
    <title>logo copy</title>
    <desc>Created with Sketch.</desc>
    <g id="Symbols" stroke="none" stroke-width="1" fill="none" fill-rule="evenodd">
        <g id="PC-header" transform="translate(-612.000000, -54.000000)" fill="#C11C1F">
            <g id="Group" transform="translate(610.000000, 25.000000)">
                <g id="logo-copy" transform="translate(2.000000, 29.000000)">
                    <polygon id="Fill-1" points="7.99360578e-15 8.8817842e-15 7.99360578e-15 17.9086027 3.79838561 17.9086027 3.79838561 10.6472715 11.1467515 10.6472715 11.1467515 7.28431006 3.79838561 7.28431006 3.79838561 3.45257914 11.8243266 3.45257914 11.8243266 8.8817842e-15"></polygon>
                    <path d="M21.0662694,8.8817842e-15 L14.4642857,17.9086027 L18.6685166,17.9086027 L19.9805166,14.010233 L26.9218709,14.010233 L28.2338709,17.9086027 L32.439268,17.9086027 L25.8361181,8.8817842e-15 L21.0662694,8.8817842e-15 Z M23.4640222,3.76509213 L25.8361181,10.825358 L21.0662694,10.825358 L23.4640222,3.76509213 Z" id="Fill-2"></path>
                    <path d="M46.6753734,4.65552435 C45.4088561,3.85356088 44.1878215,3.45257914 43.0799104,3.45257914 C41.6104705,3.45257914 40.7276403,4.27752151 40.7276403,5.32421023 C40.7276403,6.50417654 41.5428296,6.88332833 43.0344278,7.37392776 C46.1995547,8.39763758 48.484184,9.51211404 48.484184,12.8980544 C48.484184,16.0829294 45.9289912,18.6220974 41.8367176,18.6220974 C39.7783355,18.6220974 37.9240422,18.0660081 36.1607143,16.9745106 L37.2919498,13.6104002 C38.8068724,14.6800678 40.3206288,15.1695183 41.7002696,15.1695183 C43.2606749,15.1695183 44.6403157,14.4790024 44.6403157,13.1646096 C44.6403157,12.0064732 43.7808099,11.4055751 41.6326287,10.6702504 C39.0552777,9.80164813 36.9082627,8.64351177 36.9082627,5.52412662 C36.9082627,2.42886932 39.3491657,-1.42108547e-14 42.9667869,-1.42108547e-14 C44.8665628,-1.42108547e-14 46.2905201,0.579068182 47.5570373,1.27073295 L46.6753734,4.65552435 Z" id="Fill-3"></path>
                    <polygon id="Fill-6" points="61.1461398 17.9086027 57.325596 17.9086027 57.325596 3.45143019 51.8303571 3.45143019 51.8303571 8.8817842e-15 66.6402125 8.8817842e-15 66.6402125 3.45143019 61.1461398 3.45143019"></polygon>
                    <path d="M85.4669518,17.3295345 C83.5905003,18.2211157 81.7140489,18.6220974 79.6335085,18.6220974 C73.0770075,18.6220974 69.9107143,14.1446595 69.9107143,9.33287865 C69.9107143,3.63066558 74.2070768,-1.42108547e-14 79.6113503,-1.42108547e-14 C81.6907244,-1.42108547e-14 83.7257821,0.600898133 85.4669518,1.71422565 L84.223759,5.14497484 C83.7036239,4.69918425 82.2785004,3.45143019 79.6335085,3.45143019 C75.8129647,3.45143019 73.7324243,6.10319481 73.7324243,9.3110487 C73.7324243,12.4292849 75.6765167,15.1695183 79.8819138,15.1695183 C82.7088364,15.1695183 84.5852879,13.9217642 85.4669518,13.342696 L85.4669518,17.3295345 Z" id="Fill-8"></path>
                    <path d="M98.5798522,15.1695183 C102.016709,15.1695183 104.142732,12.2960073 104.142732,9.3110487 C104.142732,6.3260901 102.016709,3.45257914 98.5798522,3.45257914 C95.1429954,3.45257914 93.0169724,6.3260901 93.0169724,9.3110487 C93.0169724,12.2960073 95.1429954,15.1695183 98.5798522,15.1695183 M98.5798522,-1.42108547e-14 C103.756712,-1.42108547e-14 107.963276,3.76394318 107.963276,9.3110487 C107.963276,14.8799842 103.734554,18.6220974 98.5798522,18.6220974 C93.4473084,18.6220974 89.1964286,14.924793 89.1964286,9.3110487 C89.1964286,3.71913433 93.4473084,-1.42108547e-14 98.5798522,-1.42108547e-14" id="Fill-11"></path>
                    <path d="M115.918758,14.4571725 L118.382986,14.4571725 C121.051302,14.4571725 124.805371,14.4571725 124.805371,8.95487581 C124.805371,3.47440909 121.029144,3.45257914 118.496109,3.45257914 L115.918758,3.45257914 L115.918758,14.4571725 Z M112.098214,-1.24344979e-14 L119.536379,-1.24344979e-14 C126.094047,-1.24344979e-14 128.625915,4.23271266 128.625915,8.95487581 C128.625915,13.7666567 126.071888,17.9097516 119.423256,17.9097516 L112.098214,17.9097516 L112.098214,-1.24344979e-14 Z" id="Fill-14"></path>
                    <polygon id="Fill-16" points="132.589286 17.9086027 136.433154 17.9086027 136.433154 8.8817842e-15 132.589286 8.8817842e-15"></polygon>
                    <polygon id="Fill-18" points="146.459698 8.8817842e-15 154.419165 12.1845597 154.419165 8.8817842e-15 158.240875 8.8817842e-15 158.240875 17.9086027 154.012153 17.9086027 146.052687 5.72404302 146.052687 17.9086027 142.232143 17.9086027 142.232143 8.8817842e-15"></polygon>
                    <path d="M178.098687,5.12314489 C177.53307,4.72216315 175.724259,3.45257914 172.829696,3.45257914 C168.489017,3.45257914 166.544924,6.28128125 166.544924,9.35585755 C166.544924,11.7387691 167.765959,15.1695183 172.875178,15.1695183 C174.367943,15.1695183 175.158641,14.8799842 175.747583,14.6570889 L175.747583,11.2711485 L171.700793,11.2711485 L171.700793,7.97482589 L179.500486,7.97482589 L179.500486,17.2858746 C177.600711,18.0878381 175.408213,18.6220974 172.875178,18.6220974 C166.070272,18.6220974 162.723214,14.0780207 162.723214,9.28921875 C162.723214,3.74211323 167.019577,-1.42108547e-14 172.807537,-1.42108547e-14 C175.204124,-1.42108547e-14 177.284664,0.579068182 179.387363,1.73720455 L178.098687,5.12314489 Z" id="Fill-19"></path>
                </g>
            </g>
        </g>
    </g>
</svg>
